assets/svg/ficon/digg.svg

<?xml version="1.0" encoding="utf-8"?>
<svg width="2048" height="1792" viewBox="0 0 2048 1792" xmlns="http://www.w3.org/2000/svg"><path d="M328 282h204v983h-532v-697h328v-286zm0 819v-369h-123v369h123zm286-533v697h205v-697h-205zm0-286v204h205v-204h-205zm287 286h533v942h-533v-163h328v-82h-328v-697zm328 533v-369h-123v369h123zm287-533h532v942h-532v-163h327v-82h-327v-697zm327 533v-369h-123v369h123z" fill="#60be86"/></svg>

<svg width="2048" height="1792" xmlns="http://www.w3.org/2000/svg"><path d="M328 282h204v983H0V568h328V282zm0 819V732H205v369h123zm286-533v697h205V568H614zm0-286v204h205V282H614zm287 286h533v942H901v-163h328v-82H901V568zm328 533V732h-123v369h123zm287-533h532v942h-532v-163h327v-82h-327V568zm327 533V732h-123v369h123z" fill="#60be86"/></svg>
